X: 4
T: Quam pulchra es Cycle / O pulcherrima mulierum
N: Derived from Gas2017d-Quam_pulchra_es_Cycle-O_pulcherrima_mulierum.krn
C: Gaspar van Weerbeke
%%abc-version 2.0
%%abcx-abcm2ps-target-version 5.9.1 (29 Sep 2008)
%%abc-creator hum2abc beta
%%abcx-conversion-date 2019/02/16 20:36:45
%%abc-edited-by Jesse Rodin
%%abc-edited-by BOKULICH 12/05/13
%%abcx-initial-encoding-date 2016/03/29/
%%humdrum-veritas 3874898188
%%humdrum-veritas-data 3900275587
%%linebreak <none>
%%barnumbers 0
L: 1/4
M: 4/2
Q: 1/2=120
%%staves [1 2 3 4]
V: 1 clef=treble
V: 2 clef=treble-8
V: 3 clef=treble-8
V: 4 clef=bass
K: F
[V:1] G8 | 
[V:2] d8- | 
[V:3] G8 | 
[V:4] G,8 | 
[V:1] G4F4 | 
[V:2] d8 | 
[V:3] B4A4 | 
[V:4] G,4D,4 | 
[V:1] B6G2 | 
[V:2] B4B3c | 
[V:3] G8 | 
[V:4] (3:2:5_E,4E,2E,3F,G,2 | 
[V:1] A3BcdB2- | 
[V:2] def4g2- | 
[V:3] F6B2- | 
[V:4] D,4A,2G,2- | 
[V:1] B2G4FE | 
[V:2] gfedc4 | 
[V:3] B4G4 | 
[V:4] G,4E,4 | 
[V:1] F4B4 | 
[V:2] d4g4 | 
[V:3] A4z4 | 
[V:4] D,4z4 | 
[V:1] c2d4cB | 
[V:2] e2f2d2g2- | 
[V:3] z8 | 
[V:4] z8 | 
[V:1] A2A2G4 | 
[V:2] g2^f2g4 | 
[V:3] z4B4 | 
[V:4] z4G,4 | 
[V:1] z8 | 
[V:2] z8 | 
[V:3] c2d4cB | 
[V:4] E,2F,2D,2G,2- | 
[V:1] z8 | 
[V:2] z8 | 
[V:3] A2A2G3A | 
[V:4] G,2^F,2G,3=F, | 
[V:1] z8 | 
[V:2] z8 | 
[V:3] B2c2A2d2- | 
[V:4] G,2A,2F,2G,2 | 
[V:1] z8 | 
[V:2] z4f4- | 
[V:3] d2^c2d4- | 
[V:4] E,4D,4- | 
[V:1] z4d4- | 
[V:2] f2f2g4 | 
[V:3] d4B4- | 
[V:4] D,4G,4 | 
[V:1] d2d2_e4- | 
[V:2] g2g4g2 | 
[V:3] B2B2c4 | 
[V:4] G,2G,2C,4- | 
[V:1] e2_e2e4 | 
[V:2] g4gf_ed | 
[V:3] c2c4c2 | 
[V:4] C,2C,2C,4 | 
[V:1] _e4d4 | 
[V:2] c4d4 | 
[V:3] c4B4 | 
[V:4] C,4G,4- | 
[V:1] d2d4B2 | 
[V:2] B2G6 | 
[V:3] B2d6 | 
[V:4] G,2B,3A,B,2 | 
[V:1] A6A2 | 
[V:2] A6F2 | 
[V:3] c3Bc2d2- | 
[V:4] F,4F,2D,2 | 
[V:1] G4F4- | 
[V:2] G4A3B | 
[V:3] d2c2d2f2- | 
[V:4] E,4D,4- | 
[V:1] F4z4 | 
[V:2] A2d3cd2 | 
[V:3] fef3ed2 | 
[V:4] D,4z4 | 
[V:1] z8 | 
[V:2] e2f3ef2 | 
[V:3] c2d3cA2 | 
[V:4] z8 | 
[V:1] z8 | 
[V:2] g2a4g2- | 
[V:3] G2c4B2 | 
[V:4] z8 | 
[V:1] z8 | 
[V:2] g2^f2g4 | 
[V:3] A4G4 | 
[V:4] z8 | 
[V:1] z2G2G2G2 | 
[V:2] z2d2d2d2 | 
[V:3] z2B2B2B2 | 
[V:4] z2G,2G,2G,2 | 
[V:1] G4A2A2- | 
[V:2] d3ef3e | 
[V:3] B4A2A2- | 
[V:4] G,4D,2F,2- | 
[V:1] A2B2A2F2 | 
[V:2] c2e4d2- | 
[V:3] A2G2F2A2- | 
[V:4] F,2E,2F,2D,2 | 
[V:1] G4F4 | 
[V:2] d2^c2d4 | 
[V:3] A2G2A4 | 
[V:4] E,4D,4 | 
[V:1] z2A2A2A2 | 
[V:2] z2d2d2d2 | 
[V:3] z2A2A2A2 | 
[V:4] z2D,2D,2D,2 | 
[V:1] B2A4G2- | 
[V:2] d2f4c2 | 
[V:3] G2c4G2 | 
[V:4] G,2F,4E,2 | 
[V:1] G2^F2G4 | 
[V:2] d4d4 | 
[V:3] A4G4- | 
[V:4] D,4z4 | 
[V:1] z2d2d4- | 
[V:2] z4z2d2 | 
[V:3] G4z4 | 
[V:4] z8 | 
[V:1] d2B2d3e | 
[V:2] d6B2 | 
[V:3] z8 | 
[V:4] z8 | 
[V:1] f3ec2f2 | 
[V:2] d3ef3e | 
[V:3] z8 | 
[V:4] z8 | 
[V:1] e2d3cB2 | 
[V:2] c2f2e2g2 | 
[V:3] z8 | 
[V:4] z8 | 
[V:1] A2d4^c2 | 
[V:2] d2f2e4 | 
[V:3] z8 | 
[V:4] z4A,4 | 
[V:1] d6c2 | 
[V:2] d4z4 | 
[V:3] z8 | 
[V:4] B,6A,2 | 
[V:1] d2B2A4 | 
[V:2] z4a4 | 
[V:3] z8 | 
[V:4] B,2G,4F,2 | 
[V:1] G2z2z4 | 
[V:2] b6a2 | 
[V:3] z8 | 
[V:4] G,2D4C2 | 
[V:1] z8 | 
[V:2] b2g4f2 | 
[V:3] z4A4 | 
[V:4] D2B,2A,4 | 
[V:1] z8 | 
[V:2] g3fd2c2 | 
[V:3] B6A2 | 
[V:4] G,4z4 | 
[V:1] z4A4 | 
[V:2] d2B2A4 | 
[V:3] B2G4F2 | 
[V:4] z4D,4 | 
[V:1] B6A2 | 
[V:2] G2g4f2 | 
[V:3] G2d4c2 | 
[V:4] G,6A,2 | 
[V:1] B2G4^F2 | 
[V:2] g2d6 | 
[V:3] d2B2A4 | 
[V:4] D,2G,2D,4 | 
[V:1] G4B2c2 | 
[V:2] B4z4 | 
[V:3] G4d2e2 | 
[V:4] z2G,4E,2 | 
[V:1] d2B2A2B2- | 
[V:2] d3ef2g2- | 
[V:3] f2g2f2d2- | 
[V:4] D,2G,2D,2G,2- | 
[V:1] B2A4G2- | 
[V:2] g2e2f2d2- | 
[V:3] d2c4B2 | 
[V:4] G,2A,2F,2G,2 | 
[V:1] G2^F2[M:6/2]G6 | 
[V:2] d4[M:6/2]d4d2 | 
[V:3] A4[M:6/2]G6 | 
[V:4] D,4[M:6/2]G,6 | 
[V:1] G6F4F2 | 
[V:2] _e3dc2d6 | 
[V:3] G6A4B2 | 
[V:4] _E,4E,2D,6 | 
[V:1] E4F2G4E2 | 
[V:2] G4F2B4G2 | 
[V:3] c4A2G6 | 
[V:4] C,4D,2_E,6 | 
[V:1] F3GA2B4G2 | 
[V:2] A4F2B3AB2 | 
[V:3] d6d4e2 | 
[V:4] D,6G,6 | 
[V:1] A3Bc2d4c2 | 
[V:2] c4G2A4a2 | 
[V:3] f4c2f4e2 | 
[V:4] F,4E,2D,4A,2 | 
[V:1] B2c4d4d2 | 
[V:2] g2a4f4a2 | 
[V:3] d2e4d4f2 | 
[V:4] B,2A,4D,4D,2 | 
[V:1] c4c2d2d2d2 | 
[V:2] a4a2a2a2a2 | 
[V:3] e4e2d2d2f2 | 
[V:4] A,4A,2D,2D,2D,2 | 
[V:1] c4c2d6 | 
[V:2] a4a2f6 | 
[V:3] e4e2d6 | 
[V:4] A,4A,2D,4D,2 | 
[V:1] z6f4e2 | 
[V:2] g4g2f3ga2 | 
[V:3] e4e2d4c2 | 
[V:4] C,4C,2D,4z2 | 
[V:1] d2c4B4A2 | 
[V:2] b2a2f2g4f2 | 
[V:3] B2c2A2G4A2 | 
[V:4] z12 | 
[V:1] G2F2G2A4A2 | 
[V:2] d2f2e2f4z2 | 
[V:3] B4G2F6 | 
[V:4] G,2D,2E,2D,4D,2 | 
[V:1] G3FG2A4G2 | 
[V:2] d4d2d4e2 | 
[V:3] B6A4B2 | 
[V:4] G,4G,2D,4G,2 | 
[V:1] A3Bc2B3AG2 | 
[V:2] f6g4e2- | 
[V:3] c6d4B2 | 
[V:4] F,3G,A,2G,4G,2 | 
[V:1] G4^F2G4z2 | 
[V:2] e2d4d6 | 
[V:3] c2A4G6- | 
[V:4] C,2D,4z6 | 
[V:1] d4d2f3ed2 | 
[V:2] z4g2a2f2g2 | 
[V:3] G4z2d4d2 | 
[V:4] B,4G,2F,2B,4 | 
[V:1] c4B2A4G2 | 
[V:2] a4g2f3ed2 | 
[V:3] f3ed2c4B2 | 
[V:4] F,2B,4F,4G,2 | 
[V:1] F3GABc3BAG | 
[V:2] d3Bc2f4e2 | 
[V:3] A3BA2F3GAB | 
[V:4] D,3G,F,2A,3B,C2 | 
[V:1] A2B3AG4^F2 | 
[V:2] f2g4e2d4 | 
[V:3] c2d2B2c2A4 | 
[V:4] A,2G,4C,2D,4 | 
[V:1] G12 |]  
[V:2] d12 |]  
[V:3] G12 |]  
[V:4] G,12 |]  



